fs/image_copy_20_filled.svg

<svg viewBox="0 0 20 20" fill="none" xmlns="http://www.w3.org/2000/svg" height="1em" width="1em">
  <path d="M4.99999 6C4.99999 4.34315 6.34314 3 7.99999 3H14C15.6568 3 17 4.34315 17 6V12C17 12.6479 16.7946 13.2479 16.4454 13.7383L12.2092 9.50207C11.5414 8.83427 10.4586 8.83427 9.79085 9.50207L5.55463 13.7383C5.20539 13.2479 4.99999 12.6479 4.99999 12V6ZM8.4975 7.4966C9.04841 7.4966 9.49501 7.05 9.49501 6.4991C9.49501 5.94819 9.04841 5.50159 8.4975 5.50159C7.94659 5.50159 7.49999 5.94819 7.49999 6.4991C7.49999 7.05 7.94659 7.4966 8.4975 7.4966ZM11.502 10.2092L15.7383 14.4454C15.2478 14.7946 14.6479 15 14 15H7.99999C7.35208 15 6.75215 14.7946 6.26174 14.4454L10.498 10.2092C10.7752 9.9319 11.2248 9.9319 11.502 10.2092ZM14.2361 16C13.6868 16.6138 12.8885 17 12 17H7.5C5.01472 17 3 14.9853 3 12.5V8.00002C3 7.11152 3.38625 6.31324 4 5.76392V12.5C4 12.6208 4.00612 12.7402 4.01807 12.8579C4.1973 14.6228 5.68782 16 7.5 16H14.2361Z" fill="#212121"/>
</svg>

<svg viewBox="0 0 20 20" fill="none" xmlns="http://www.w3.org/2000/svg" height="1em" width="1em">
  <path d="M5 6a3 3 0 0 1 3-3h6a3 3 0 0 1 3 3v6a2.98 2.98 0 0 1-.555 1.738L12.21 9.502a1.71 1.71 0 0 0-2.418 0l-4.236 4.236A2.986 2.986 0 0 1 5 12V6Zm3.498 1.497a.998.998 0 1 0 0-1.995.998.998 0 0 0 0 1.995Zm3.004 2.712 4.236 4.236A2.98 2.98 0 0 1 14 15H8a2.986 2.986 0 0 1-1.738-.555l4.236-4.236a.71.71 0 0 1 1.004 0ZM14.236 16c-.55.614-1.348 1-2.236 1H7.5A4.5 4.5 0 0 1 3 12.5V8c0-.888.386-1.687 1-2.236V12.5A3.5 3.5 0 0 0 7.5 16h6.736Z" fill="#212121"/>
</svg>
